knife-threat.svg

<svg height="128pt" viewBox="0 0 105 128" width="140" xmlns="http://www.w3.org/2000/svg"><g stroke-width=".094"><path d="m21.87 17.27c2.86-5.67 7.02-10.83 12.38-14.31.88 2.1 1.24 4.35 1.58 6.59 2.87 16.42 5.69 32.85 8.59 49.26-7.45-.12-14.9.25-22.34-.12-2.15.09-3.7-1.43-4.97-2.95l-.38-.4c-.56-12.81-.99-26.37 5.14-38.07z" fill="#cdd7de" stroke="#cdd7de"/><path d="m17.11 55.74c1.27 1.52 2.82 3.04 4.97 2.95 7.44.37 14.89 0 22.34.12.42 2.11.71 4.24 1 6.37-3.79-.01-7.6.29-11.3 1.14-3.86-4.14-10.05-3.49-15.19-4.15-2.04-1.44-1.31-4.31-1.82-6.43z" fill="#abb9c3" stroke="#abb9c3"/><path d="m34.12 66.32c3.7-.85 7.51-1.15 11.3-1.14-.11.49-.32 1.47-.43 1.97l-.45.51-.67.26-.82.13c-3.28.38-6.04 2.33-8.31 4.61l-.28.24c-2.13-1.22-1.55-5-.34-6.58z" fill="#2b3238" stroke="#2b3238"/><path d="m46.99 89.6c.93 1.12 1.89 2.22 2.92 3.26-.11 3.09-.26 6.18-.07 9.28-1.58-.85-3.16-1.71-4.73-2.58 1.71-3.05 1.56-6.6 1.88-9.96z" fill="#2b3238" stroke="#2b3238"/><g fill="#ffdd5d" stroke="#ffdd5d"><path d="m44.99 67.15c4.19-1.1 8.53-2.72 12.91-1.53 8.09 2.01 14.28 8.61 17.84 15.91 3.87 8.18 5.22 18.17 1.35 26.59-4.66 10.29-16.45 14.76-27.1 15.05.4-2.02.94-4.03 1.01-6.09-.46-1.9-1.77-3.41-2.79-5.03 1.03-1.65 2.32-3.2 2.84-5.11-.28-1.63-.81-3.2-1.21-4.8-.19-3.1-.04-6.19.07-9.28 3.61 2.6 8.14 3.26 12.49 3.35-.02-.53-.05-1.61-.06-2.15-4.26-.35-9.43-.38-12.27-4.13-2.7-3.04-1.92-7.34-2.03-11.06-.58 0-1.75.02-2.33.03-.28 4.72-.06 9.46-.07 14.19.32 3.06-2.39 6.39-5.62 5.92-2.06-.03-3.63-1.82-4.4-3.58-.92-7.55.74-15.28-.88-22.77 2.27-2.28 5.03-4.23 8.31-4.61l.82-.13.67-.26z"/><path d="m22.47 80.25c2.16-4.06 7.47-2.55 11.21-2.73.02 3.34.05 6.67-.02 10.01-2.79.08-5.59.19-8.37.4l-.43.03c-1.87-2.05-4.13-4.86-2.39-7.71z"/><path d="m20.24 94.01c.13-3.4 3.9-5.5 7-4.39 2.13.29 4.27.49 6.42.68.08 3.01-.41 6.47 2.03 8.74-3.9-.19-7.83-.26-11.7.25l-1.07.11c-1.23-1.58-2.98-3.16-2.68-5.39z"/><path d="m27.07 101.11c6.24.8 12.77-.92 18.84.86 4.01 1.45 3.61 7.43-.27 8.68-6.6.74-13.27-.03-19.89.32-.86-1.59-2.39-3.06-2.17-5-.11-2.25 1.89-3.67 3.49-4.86z"/><path d="m32.41 113.07c3.85.12 7.71-.1 11.56.11 2.27.01 4.19 1.99 4.8 4.06.57 2.51-1.58 4.29-3.05 5.95-4.52-.27-9.09.31-13.57-.32-4.82-1.07-4.57-9 .26-9.8z"/></g><path d="m34.46 72.9.28-.24c1.62 7.49-.04 15.22.88 22.77.77 1.76 2.34 3.55 4.4 3.58 3.23.47 5.94-2.86 5.62-5.92.01-4.73-.21-9.47.07-14.19.58-.01 1.75-.03 2.33-.03.11 3.72-.67 8.02 2.03 11.06 2.84 3.75 8.01 3.78 12.27 4.13.01.54.04 1.62.06 2.15-4.35-.09-8.88-.75-12.49-3.35-1.03-1.04-1.99-2.14-2.92-3.26-.32 3.36-.17 6.91-1.88 9.96 1.57.87 3.15 1.73 4.73 2.58.4 1.6.93 3.17 1.21 4.8-.52 1.91-1.81 3.46-2.84 5.11 1.02 1.62 2.33 3.13 2.79 5.03-.07 2.06-.61 4.07-1.01 6.09-1.43-.01-2.85 0-4.27.02 1.47-1.66 3.62-3.44 3.05-5.95-.61-2.07-2.53-4.05-4.8-4.06-3.85-.21-7.71.01-11.56-.11-2.38-.08-4.9-.29-6.66-2.1 6.62-.35 13.29.42 19.89-.32 3.88-1.25 4.28-7.23.27-8.68-6.07-1.78-12.6-.06-18.84-.86-1.05-.38-3.15-1.15-4.2-1.53l1.12-.29c3.87-.51 7.8-.44 11.7-.25-2.44-2.27-1.95-5.73-2.03-8.74-2.15-.19-4.29-.39-6.42-.68-.49-.42-1.47-1.27-1.95-1.69 2.78-.21 5.58-.32 8.37-.4.07-3.34.04-6.67.02-10.01.05-1.56.03-3.2.78-4.62z" fill="#f69943" stroke="#f69943"/></g></svg>

<svg width="140" height="128pt" viewBox="0 0 105 128" version="1.1" xmlns="http://www.w3.org/2000/svg"><g id="#cdd7deff"><path fill="#cdd7de" stroke="#cdd7de" stroke-width=".094" opacity="1" d="M 21.87 17.27 C 24.73 11.60 28.89 6.44 34.25 2.96 C 35.13 5.06 35.49 7.31 35.83 9.55 C 38.70 25.97 41.52 42.40 44.42 58.81 C 36.97 58.69 29.52 59.06 22.08 58.69 C 19.93 58.78 18.38 57.26 17.11 55.74 L 16.73 55.34 C 16.17 42.53 15.74 28.97 21.87 17.27 Z"/></g><g id="#abb9c3fe"><path fill="#abb9c3" stroke="#abb9c3" stroke-width=".094" opacity="1" d="M 17.11 55.74 C 18.38 57.26 19.93 58.78 22.08 58.69 C 29.52 59.06 36.97 58.69 44.42 58.81 C 44.84 60.92 45.13 63.05 45.42 65.18 C 41.63 65.17 37.82 65.47 34.12 66.32 C 30.26 62.18 24.07 62.83 18.93 62.17 C 16.89 60.73 17.62 57.86 17.11 55.74 Z"/></g><g id="#2b3238ff"><path fill="#2b3238" stroke="#2b3238" stroke-width=".094" opacity="1" d="M 34.12 66.32 C 37.82 65.47 41.63 65.17 45.42 65.18 C 45.31 65.67 45.10 66.65 44.99 67.15 L 44.54 67.66 L 43.87 67.92 L 43.05 68.05 C 39.77 68.43 37.01 70.38 34.74 72.66 L 34.46 72.90 C 32.33 71.68 32.91 67.90 34.12 66.32 Z"/><path fill="#2b3238" stroke="#2b3238" stroke-width=".094" opacity="1" d="M 46.99 89.60 C 47.92 90.72 48.88 91.82 49.91 92.86 C 49.80 95.95 49.65 99.04 49.84 102.14 C 48.26 101.29 46.68 100.43 45.11 99.56 C 46.82 96.51 46.67 92.96 46.99 89.60 Z"/></g><g id="#ffdd5dff"><path fill="#ffdd5d" stroke="#ffdd5d" stroke-width=".094" opacity="1" d="M 44.99 67.15 C 49.18 66.05 53.52 64.43 57.90 65.62 C 65.99 67.63 72.18 74.23 75.74 81.53 C 79.61 89.71 80.96 99.70 77.09 108.12 C 72.43 118.41 60.64 122.88 49.99 123.17 C 50.39 121.15 50.93 119.14 51.00 117.08 C 50.54 115.18 49.23 113.67 48.21 112.05 C 49.24 110.40 50.53 108.85 51.05 106.94 C 50.77 105.31 50.24 103.74 49.84 102.14 C 49.65 99.04 49.80 95.95 49.91 92.86 C 53.52 95.46 58.05 96.12 62.40 96.21 C 62.38 95.68 62.35 94.60 62.34 94.06 C 58.08 93.71 52.91 93.68 50.07 89.93 C 47.37 86.89 48.15 82.59 48.04 78.87 C 47.46 78.87 46.29 78.89 45.71 78.90 C 45.43 83.62 45.65 88.36 45.64 93.09 C 45.96 96.15 43.25 99.48 40.02 99.01 C 37.96 98.98 36.39 97.19 35.62 95.43 C 34.70 87.88 36.36 80.15 34.74 72.66 C 37.01 70.38 39.77 68.43 43.05 68.05 L 43.87 67.92 L 44.54 67.66 L 44.99 67.15 Z"/><path fill="#ffdd5d" stroke="#ffdd5d" stroke-width=".094" opacity="1" d="M 22.47 80.25 C 24.63 76.19 29.94 77.70 33.68 77.52 C 33.70 80.86 33.73 84.19 33.66 87.53 C 30.87 87.61 28.07 87.72 25.29 87.93 L 24.86 87.96 C 22.99 85.91 20.73 83.10 22.47 80.25 Z"/><path fill="#ffdd5d" stroke="#ffdd5d" stroke-width=".094" opacity="1" d="M 20.24 94.01 C 20.37 90.61 24.14 88.51 27.24 89.62 C 29.37 89.91 31.51 90.11 33.66 90.30 C 33.74 93.31 33.25 96.77 35.69 99.04 C 31.79 98.85 27.86 98.78 23.99 99.29 L 22.92 99.40 C 21.69 97.82 19.94 96.24 20.24 94.01 Z"/><path fill="#ffdd5d" stroke="#ffdd5d" stroke-width=".094" opacity="1" d="M 27.07 101.11 C 33.31 101.91 39.84 100.19 45.91 101.97 C 49.92 103.42 49.52 109.40 45.64 110.65 C 39.04 111.39 32.37 110.62 25.75 110.97 C 24.89 109.38 23.36 107.91 23.58 105.97 C 23.47 103.72 25.47 102.30 27.07 101.11 Z"/><path fill="#ffdd5d" stroke="#ffdd5d" stroke-width=".094" opacity="1" d="M 32.41 113.07 C 36.26 113.19 40.12 112.97 43.97 113.18 C 46.24 113.19 48.16 115.17 48.77 117.24 C 49.34 119.75 47.19 121.53 45.72 123.19 C 41.20 122.92 36.63 123.50 32.15 122.87 C 27.33 121.80 27.58 113.87 32.41 113.07 Z"/></g><g id="#f69943ff"><path fill="#f69943" stroke="#f69943" stroke-width=".094" opacity="1" d="M 34.46 72.90 L 34.74 72.66 C 36.36 80.15 34.70 87.88 35.62 95.43 C 36.39 97.19 37.96 98.98 40.02 99.01 C 43.25 99.48 45.96 96.15 45.64 93.09 C 45.65 88.36 45.43 83.62 45.71 78.90 C 46.29 78.89 47.46 78.87 48.04 78.87 C 48.15 82.59 47.37 86.89 50.07 89.93 C 52.91 93.68 58.08 93.71 62.34 94.06 C 62.35 94.60 62.38 95.68 62.40 96.21 C 58.05 96.12 53.52 95.46 49.91 92.86 C 48.88 91.82 47.92 90.72 46.99 89.60 C 46.67 92.96 46.82 96.51 45.11 99.56 C 46.68 100.43 48.26 101.29 49.84 102.14 C 50.24 103.74 50.77 105.31 51.05 106.94 C 50.53 108.85 49.24 110.40 48.21 112.05 C 49.23 113.67 50.54 115.18 51.00 117.08 C 50.93 119.14 50.39 121.15 49.99 123.17 C 48.56 123.16 47.14 123.17 45.72 123.19 C 47.19 121.53 49.34 119.75 48.77 117.24 C 48.16 115.17 46.24 113.19 43.97 113.18 C 40.12 112.97 36.26 113.19 32.41 113.07 C 30.03 112.99 27.51 112.78 25.75 110.97 C 32.37 110.62 39.04 111.39 45.64 110.65 C 49.52 109.40 49.92 103.42 45.91 101.97 C 39.84 100.19 33.31 101.91 27.07 101.11 C 26.02 100.73 23.92 99.96 22.87 99.58 L 23.99 99.29 C 27.86 98.78 31.79 98.85 35.69 99.04 C 33.25 96.77 33.74 93.31 33.66 90.30 C 31.51 90.11 29.37 89.91 27.24 89.62 C 26.75 89.20 25.77 88.35 25.29 87.93 C 28.07 87.72 30.87 87.61 33.66 87.53 C 33.73 84.19 33.70 80.86 33.68 77.52 C 33.73 75.96 33.71 74.32 34.46 72.90 Z"/></g></svg>
